X:162
T:Sl\"angpolska efter Blomgren
R:sl\"angpolska
H:efter Johan Christian Blomgren, H\"asslunda
A:Sk{\aa}ne
Z:id:hn-sp-162
M:3/4
L:1/16
K:Am
A^GAB c2c2 B2B2 | A2a2 c'ba^g a2e2 | fedc edcB dcBA | ^G2A2 B2e2 E4 |
A^GAB c2c2 B2B2 | A2a2 c'ba^g a2e2 | fedc edcB dcBA |1 ^GABG A6 E2 :|
[2 ^GABG A6 B2 |: cecA cecA cecA | dcde f2e2 d2c2 | BdBG BdBG BdBG |
cBcd e2c2 B2^G2 | A^GAB c2c2 B2B2 | A2a2 c'ba^g a2e2 | fedc edcB dcBA |
[1 ^GABG A6 B2 :|2 ^GABG A6 E2 ||

